X: 19
T:19.  Indian Summer
C:c 1999 Harry Bolick
R:breakdown
O:United States
A:Brooklyn, New York
M:4/4
L:1/8
Q:300
K:D
(3(ABc) |: "D" d2f2e2f2 | "G" B2 (eg) ed (cA) |"D" (dc) de (fe) fg |"A"  b2e2 e(A Bc) |
 "D" d2f2e2f2 |"G" B2 (eg) ed (cA) | "A" ag ag ag ec |1 "D" (d4 d)(A Bc):|2 "D" (d4 d3) E ||
|: "D" F2d2 cB A2 | "E"^G2 B4 B2 | "A" c2  cd cB AB | cB cd cBA2| 
"D" F2d2 cB A2 | "E"^G2 B4 B2 | "A" c2  cc (cB)  A2  | "D" F3 G A4 :|
